**kern
*staff1
*I"Piano
=1- 
*clefG2
*k[]
*C:
*M4/4
4r
8r
8g/
8gg\L
[8ee\J
4ee\]
=2 
4r
8r
8a-/
8aa-\
4.ff\
=3 
4aa\
8gg\L
8ff\J
4ee\
12dd\L
12cc\
12b\J
=4 
4b-\
8a-/L
8g-/J
4.f/
8e-/
=5|| 
!!linebreak:original
8.e/L
16e/Jk
8e/L
[8e/J
4e/]
16d#/LL
16e/
16a/
16a-/JJ
=6 
8g/
[4.g/
4g/]
16r
16e/LL
16f/
16g/JJ
=7 
8a/
[4.a/
8a/L]
8d/J
12f/L
12a/
12a#/J
=8 
2.b\
8.a/L
16a-/Jk
=9 
!!linebreak:original
4g/
12e/L
12g/
12a/J
12b-\L
12a\
[12ee-\J
8ee-\L]
8cc#\J
=10 
8.dd/L
16d/Jk
12e/L
12f/
12g/J
12a-\L
12g\
[12dd-\J
8dd-\L]
8b\J
=11 
[1cc
=12 
2.cc\]
4r
=13 
!!linebreak:original
8.e/L
16e/Jk
8e/L
[8e/J
4e/]
16d#/LL
16e/
16a/
16a-/JJ
=14 
8g/
[4.g/
4g/]
16r
16e/LL
16f/
16g/JJ
=15 
8a/
[4.a/
8a/L]
8d/J
12f/L
12a/
12a#/J
=16 
2.b\
8.a/L
16a-/Jk
=17 
!!linebreak:original
4g/
12e/L
12g/
12a/J
12b-\L
12a\
[12ee-\J
8ee-\L]
8cc#\J
=18 
8.dd/L
16d/Jk
12e/L
12f/
12g/J
12a-\L
12g\
[12dd-\J
8dd-\L]
8b\J
=19 
[1cc
=20 
2.cc\]
4r
=21 
!!linebreak:original
4r
8cc\L
8cc\J
8cc/L
16c/L
16c#/JJ
4d/
=22 
4r
8cc\L
8cc\J
12cc/L
12c/
12c#/J
4d/
=23 
4r
8b-\L
8b-\J
12b-/L
12B-/
12Bn/J
4c/
=24 
!!linebreak:original
4r
8b-\L
8b-\J
12b-/L
12B-/
12Bn/J
4c/
=25 
4r
16r
16b\LL
16dd\
16ff#\JJ
16aa\LL
16ff#\
16aa\
16ff#\JJ
16aa-\LK
8.ffn\J
=26 
16gg\LK
8.ee\J
16a\LL
16b\
16cc\
16dd\JJ
8ff\
4ee-\
8cc#\
=27 
!!linebreak:original
8dd\L
16a\L
16dd\JJ
16ee\LL
16ff\
16gg\
16aa\JJ
48gg\LLL
48aa\
48gg\J
16ff\
48ee\L
48ff\
48ee\J
16dd\JJ
8cc#\L
16a\L
16a\JJ
=28 
16ee\LK
8dd\
16a\Jk
8cc#\L
16a\L
16a\JJ
16ccn/LK
8b/
16f/Jk
16b-/LL
16a-/
16f/
16g/JJ
=29 
!!pagebreak:original
8.e/L
16e/Jk
8e/L
[8e/J
4e/]
16d#/LL
16e/
16a/
16a-/JJ
=30 
8g/
[4.g/
4g/]
16r
16e/LL
16f/
16g/JJ
=31 
8a/
[4.a/
8a/L]
8d/J
12f/L
12a/
12a#/J
=32 
2.b\
8.a/L
16a-/Jk
=33 
!!linebreak:original
4g/
12e/L
12g/
12a/J
12b-\L
12a\
[12ee-\J
8ee-\L]
8cc#\J
=34 
8.dd/L
16d/Jk
12e/L
12f/
12g/J
12a-\L
12g\
[12dd-\J
8dd-\L]
8b\J
=35 
[1cc
=36 
2.cc\]
4r
== 
*-
